X: 1335
T: A Cloudy Morning
R:Reel
B:O'Neill's 1335
Z:Transcribed by Trish O'Neil
M:C|
L:1/8
K:D
(3.d.d.d (dA) BdAF|AFAg fdBc|(3.d.d.d (dA) BdAF|GFEF GABc|
{e}dcdA BdAF|ABde fdef|{a}gfge fedf|edce dAFA||
abaf afdf|gefd edB|afdf abaf|edefd2(df)|
afdf abaf|gbfa edBe|(3.d.d.d (dA) BdAF|ABde fdd2|]


